X:41
T:score133
L:1/16
Q:1/4=96
M:2/4
I:linebreak $
K:C
!mf! .g2.g2 | .e2 z2 .f2.f2 | .d2 z2 (cdec |!<(! ABc^c def!<)!d |!>(! =cBA!>)!G)!f! .g2.g2 |$ %5
 .e2 z2 .a2.a2 | .d2 z2 (agfe | ^cdef A=cBd | .c2) z2 z4 |] %9
